!!!OTL: MENSCHEN WOLLT IHR GLUECKLICH SEIN
!!!ARE: Europa, Mitteleuropa, Deutschland
!!!SCT: F0341
!!!YEM: Copyright 1995, estate of Helmut Schaffrath.
**kern
*ICvox
*Ivox
*M2/4
*k[f#]
*G:
=1
{8.dd
16ee
8dd
8b
=2
8.cc
16ee
4dd}
=3
{8.cc
16a
8g
8f#
=4
4g
4r}
=5
{8.a
16cc
8b
8dd
=6
8.ee
16cc
4a}
=7
{8.cc
16a
8g
8f#
=8
4g
4r}
==
!!!AGN: Jugend - Lied, Moral, Belehrung
!!!ONB: ESAC (Essen Associative Code) Database: FINK
!!!AMT: simple duple
!!!AIN: vox
!!!EED: Helmut Schaffrath
!!!EEV: 1.0
*-
